src/assets/icons/phone-number.svg

<?xml version="1.0" encoding="UTF-8"?>
<svg width="16px" height="16px" viewBox="0 0 16 16" version="1.1" xmlns="http://www.w3.org/2000/svg" xmlns:xlink="http://www.w3.org/1999/xlink">
    <!-- Generator: Sketch 48.2 (47327) - http://www.bohemiancoding.com/sketch -->
    <title>icon-phone-number-16</title>
    <desc>Created with Sketch.</desc>
    <defs>
        <path d="M101.880127,259.65548 C102.537576,258.999365 102.538909,257.932512 101.881461,257.277731 L100.097149,255.492086 C99.4397013,254.835971 98.3728483,254.835971 97.7167337,255.492086 L96.7365626,256.470924 C95.889748,257.320405 95.757725,258.644636 96.4205074,259.646145 C99.262337,263.945562 103.056333,267.739558 107.35575,270.580054 C108.354591,271.241503 109.684157,271.110813 110.530971,270.263999 L111.509809,269.285161 C112.167257,268.627713 112.167257,267.562194 111.509809,266.906079 L109.725497,265.121768 C109.068049,264.462986 108.00253,264.462986 107.346415,265.121768 L106.751645,265.715205 C104.79397,264.112258 102.890971,262.206592 101.285357,260.25025 L101.880127,259.65548 L101.880127,259.65548 Z" id="path-1"></path>
    </defs>
    <g id="16px" stroke="none" stroke-width="1" fill-rule="evenodd" transform="translate(-96.000000, -255.000000)">
        <g id="slices" transform="translate(32.000000, 32.000000)"></g>
        <mask id="mask-2">
            <use xlink:href="#path-1"></use>
        </mask>
        <use id="Mask" xlink:href="#path-1"></use>
    </g>
</svg>

<svg width="16" height="16" xmlns="http://www.w3.org/2000/svg" xmlns:xlink="http://www.w3.org/1999/xlink">
  <defs>
    <path d="M101.88 259.655a1.68 1.68 0 0 0 .001-2.377l-1.784-1.786a1.685 1.685 0 0 0-2.38 0l-.98.979a2.521 2.521 0 0 0-.316 3.175 39.038 39.038 0 0 0 10.935 10.934c.999.662 2.328.53 3.175-.316l.979-.979a1.681 1.681 0 0 0 0-2.379l-1.785-1.784a1.679 1.679 0 0 0-2.379 0l-.594.593a40.017 40.017 0 0 1-5.467-5.465l.595-.595z" id="a"/>
  </defs>
  <g fill-rule="evenodd" transform="translate(-96 -255)">
    <use xlink:href="#a"/>
  </g>
</svg>
